client/assets/images/logo.svg

<svg height="400pt" viewBox="0 0 400 400" width="400pt" xmlns="http://www.w3.org/2000/svg" xmlns:xlink="http://www.w3.org/1999/xlink"><clipPath id="a"><path d="m0 0h400v400h-400z"/></clipPath><linearGradient id="b" gradientTransform="matrix(-262.012 -520.564 520.868 -261.86 307.45 413.475)" gradientUnits="userSpaceOnUse" x1="0" x2="1" y1="0" y2="0"><stop offset="0" stop-color="#83d4f7"/><stop offset=".160891" stop-color="#83d4f7"/><stop offset=".938119" stop-color="#b3eaf7"/><stop offset="1" stop-color="#b3eaf7"/></linearGradient><linearGradient id="c"><stop offset="0" stop-color="#edf9fe"/><stop offset=".160891" stop-color="#edf9fe"/><stop offset=".938119" stop-color="#f4fcfe"/><stop offset="1" stop-color="#f4fcfe"/></linearGradient><linearGradient id="d" gradientTransform="matrix(-262.013 -520.564 520.868 -261.86 307.45 413.475)" gradientUnits="userSpaceOnUse" x1="0" x2="1" xlink:href="#c" y1="0" y2="0"/><linearGradient id="e" gradientTransform="matrix(-262.012 -520.564 520.868 -261.86 307.45 413.475)" gradientUnits="userSpaceOnUse" x1="0" x2="1" xlink:href="#c" y1="0" y2="0"/><g clip-path="url(#a)"><path d="m200.12 399c-109.837 0-198.877-88.988-198.877-198.764 0-109.773 89.04-198.761 198.877-198.761 109.84 0 198.88 88.988 198.88 198.761 0 109.776-89.04 198.764-198.88 198.764zm.429-140.246c12.738 16.749 43.185 54.195 67.735 63.915 1.714.682 3.365 1.004 4.959 1.004 17.934 0 28.339-41.207 34.302-82.407 5.824-40.238 7.415-80.476 7.658-82.341l.026-.019c-.004-.031-.007-.05-.01-.05s-.009.025-.016.069l-114.654 87.058-114.657-87.058c-.006-.044-.013-.069-.016-.069s-.006.019-.009.05l.025.019c.243 1.868 1.837 42.106 7.661 82.341 5.964 41.2 16.365 82.404 34.302 82.407 1.594 0 3.245-.322 4.959-1.004 24.547-9.72 54.998-47.166 67.735-63.915z" fill="url(#b)" fill-rule="evenodd"/><path d="m127.855 323.673c-17.937-.003-28.338-41.207-34.302-82.407-5.824-40.235-7.418-80.473-7.661-82.341l114.657 87.058-6.042 4.59s2.226 3.158 6.042 8.181c-12.737 16.749-43.188 54.195-67.735 63.915-1.714.682-3.365 1.004-4.959 1.004zm-41.963-164.748-.025-.019c.003-.031.006-.05.009-.05s.01.025.016.069z" fill="url(#d)" fill-rule="evenodd"/><path d="m273.243 323.673c-1.594 0-3.245-.322-4.959-1.004-24.55-9.72-54.997-47.166-67.735-63.915 3.817-5.023 6.042-8.181 6.042-8.181l-6.042-4.59 114.654-87.058c-.243 1.865-1.834 42.103-7.658 82.341-5.963 41.2-16.368 82.407-34.302 82.407z" fill="url(#e)"/><path d="m314.736 158.906c0 24.479-22.492 45.387-49.795 62.193-21.611 13.308-45.341 26.641-64.177 34.547-18.837-7.906-44.347-21.239-65.955-34.547-27.303-16.806-49.795-37.714-49.795-62.193 0-45.342 36.789-82.107 82.159-82.107 6.518 0 13.378 2.985 20.342 8.238 7.339 5.537 17.378 5.537 24.717 0 6.967-5.253 13.824-8.238 20.346-8.238 45.369 0 82.158 36.765 82.158 82.107z" fill="#fff"/></g></svg>

<?xml version="1.0" encoding="UTF-8" standalone="no"?><!-- Generator: Gravit.io --><svg xmlns="http://www.w3.org/2000/svg" xmlns:xlink="http://www.w3.org/1999/xlink" style="isolation:isolate" viewBox="0 0 400 400" width="400pt" height="400pt"><defs><clipPath id="_clipPath_Mb8OAPGCCeWauxekfyXPT3K2oVUFNvVx"><rect width="400" height="400"/></clipPath></defs><g clip-path="url(#_clipPath_Mb8OAPGCCeWauxekfyXPT3K2oVUFNvVx)"><linearGradient id="_lgradient_9" x1="-0.008153248260029902" y1="0.997484434902575" x2="0.0001443052789383125" y2="-0.01765459176818751" gradientTransform="matrix(397.757,0,0,397.525,1.243,1.475)" gradientUnits="userSpaceOnUse"><stop offset="0%" stop-opacity="1" style="stop-color:rgb(24,35,51)"/><stop offset="93.04347826086956%" stop-opacity="1" style="stop-color:rgb(119,197,215)"/><stop offset="97.82608695652173%" stop-opacity="1" style="stop-color:rgb(129,218,238)"/></linearGradient><path d=" M 200.12 399 C 90.283 399 1.243 310.012 1.243 200.236 C 1.243 90.463 90.283 1.475 200.12 1.475 C 309.96 1.475 399 90.463 399 200.236 C 399 310.012 309.96 399 200.12 399 Z  M 200.549 258.754 C 213.287 275.503 243.734 312.949 268.284 322.669 C 269.998 323.351 271.649 323.673 273.243 323.673 C 291.177 323.673 301.582 282.466 307.545 241.266 C 313.369 201.028 314.96 160.79 315.203 158.925 L 315.229 158.906 C 315.225 158.875 315.222 158.856 315.219 158.856 C 315.216 158.856 315.21 158.881 315.203 158.925 L 200.549 245.983 L 85.892 158.925 C 85.886 158.881 85.879 158.856 85.876 158.856 C 85.873 158.856 85.87 158.875 85.867 158.906 L 85.892 158.925 C 86.135 160.793 87.729 201.031 93.553 241.266 C 99.517 282.466 109.918 323.67 127.855 323.673 C 129.449 323.673 131.1 323.351 132.814 322.669 C 157.361 312.949 187.812 275.503 200.549 258.754 Z " fill-rule="evenodd" fill="url(#_lgradient_9)"/><linearGradient id="_lgradient_10" x1="0" y1="0" x2="1" y2="0" gradientTransform="matrix(-262.013,-520.564,520.868,-261.86,307.45,413.475)" gradientUnits="userSpaceOnUse"><stop offset="0%" stop-opacity="1" style="stop-color:rgb(237,249,254)"/><stop offset="16.089100000000002%" stop-opacity="1" style="stop-color:rgb(237,249,254)"/><stop offset="93.81190000000001%" stop-opacity="1" style="stop-color:rgb(244,252,254)"/><stop offset="100%" stop-opacity="1" style="stop-color:rgb(244,252,254)"/></linearGradient><path d=" M 127.855 323.673 C 109.918 323.67 99.517 282.466 93.553 241.266 C 87.729 201.031 86.135 160.793 85.892 158.925 L 200.549 245.983 L 194.507 250.573 C 194.507 250.573 196.733 253.731 200.549 258.754 C 187.812 275.503 157.361 312.949 132.814 322.669 C 131.1 323.351 129.449 323.673 127.855 323.673 Z  M 85.892 158.925 L 85.867 158.906 C 85.87 158.875 85.873 158.856 85.876 158.856 C 85.879 158.856 85.886 158.881 85.892 158.925 Z " fill-rule="evenodd" fill="url(#_lgradient_10)"/><linearGradient id="_lgradient_11" x1="1.2071067811865475" y1="0.5000000000000002" x2="0.4999999999999998" y2="1.2071067811865477" gradientTransform="matrix(-262.012,-520.564,520.868,-261.86,307.45,413.475)" gradientUnits="userSpaceOnUse"><stop offset="0%" stop-opacity="1" style="stop-color:rgb(0,0,0)"/><stop offset="16.089100000000002%" stop-opacity="1" style="stop-color:rgb(237,249,254)"/><stop offset="93.81190000000001%" stop-opacity="1" style="stop-color:rgb(244,252,254)"/><stop offset="100%" stop-opacity="1" style="stop-color:rgb(244,252,254)"/></linearGradient><path d=" M 273.243 323.673 C 271.649 323.673 269.998 323.351 268.284 322.669 C 243.734 312.949 213.287 275.503 200.549 258.754 C 204.366 253.731 206.591 250.573 206.591 250.573 L 200.549 245.983 L 315.203 158.925 C 314.96 160.79 313.369 201.028 307.545 241.266 C 301.582 282.466 291.177 323.673 273.243 323.673 Z " fill="url(#_lgradient_11)"/><path d=" M 314.736 158.906 C 314.736 183.385 292.244 204.293 264.941 221.099 C 243.33 234.407 219.6 247.74 200.764 255.646 C 181.927 247.74 156.417 234.407 134.809 221.099 C 107.506 204.293 85.014 183.385 85.014 158.906 C 85.014 113.564 121.803 76.799 167.173 76.799 C 173.691 76.799 180.551 79.784 187.515 85.037 C 194.854 90.574 204.893 90.574 212.232 85.037 C 219.199 79.784 226.056 76.799 232.578 76.799 C 277.947 76.799 314.736 113.564 314.736 158.906 Z " fill="rgb(255,255,255)"/></g></svg>
